public/logo_btt.svg

<svg width="56" height="56" viewBox="0 0 56 56"
  xmlns="http://www.w3.org/2000/svg">
  <g>
    <path fill="var(--v-primary-base, #475A91)" d="m 9.875,13.5625 3.8125,3.8125 H 21.25 l 1.875,1.875 -0.9375,0.9375 -0.9375,0.9375 h -1.875 -3.8125 l -3.75,-3.75 V 28.75 l 3.75,-3.8125 H 21.25 l 0.9375,0.9375 0.9375,0.9375 -0.9375,0.9375 -0.9375,1 h -7.5625 l -1.875,1.875 -1,0.9375 L 9.875,32.5 8.9375,33.4375 8,34.375 h 5.6875 L 14.625,33.4375 15.5625,32.5 h 7.5625 l 1,-0.9375 L 25.0625,30.625 26,29.6875 26.9375,28.75 v -3.8125 l -1.875,-1.875 0.9375,-1 L 26.9375,21.125 27.875,20.1875 28.8125,19.25 27.875,18.3125 26.9375,17.375 25.0625,15.4375 24.125,14.5 l -1,-0.9375 z m 15.375,0 1,0.9375 0.9375,0.9375 0.9375,1 0.9375,0.9375 H 38.5 l 1,0.9375 0.9375,0.9375 v 5.6875 l 0.9375,0.9375 0.9375,0.9375 1.875,1.9375 V 17.375 l -3.75,-3.8125 z m 3.8125,7.5625 v 9.5 L 30,31.5625 30.9375,32.5 h 9.5 l 0.9375,0.9375 0.9375,0.9375 H 48 L 47.0625,33.4375 46.125,32.5 45.1875,31.5625 44.1875,30.625 41.375,27.75 40.4375,26.8125 H 36.625 34.75 l 0.9375,0.9375 0.9375,1 h -3.75 V 23.0625 L 30.9375,21.125 Z" />
    <path fill="var(--v-primary-base, #475A91)" d="m 11.6875,39.9375 0.75,0.8125 H 14 l 0.375,0.375 -0.1875,0.1875 L 14,41.5 h -1.1875 l -0.75,-0.75 v 2.3125 l 0.75,-0.8125 H 14 l 0.1875,0.1875 0.1875,0.1875 -0.1875,0.25 L 14,43.0625 h -1.5625 l -0.375,0.375 L 11.875,43.625 11.6875,43.8125 11.4375,44 11.25,44.1875 h 1.1875 L 12.625,44 12.8125,43.8125 H 14.375 L 14.5625,43.625 14.75,43.4375 14.9375,43.25 15.125,43.0625 V 42.25 L 14.75,41.875 14.9375,41.6875 15.125,41.5 15.3125,41.3125 15.5,41.125 15.3125,40.9375 15.125,40.75 14.75,40.3125 14.5625,40.125 14.375,39.9375 Z m 10.0625,0 0.8125,0.8125 h 0.75 v -0.4375 l -0.375,-0.375 z m 8.9375,0 0.1875,0.1875 0.1875,0.1875 0.1875,0.25 0.25,0.1875 h 1.875 l 0.1875,0.1875 0.25,0.1875 V 42.25 L 34,42.4375 l 0.1875,0.1875 0.375,0.4375 V 40.75 l -0.75,-0.8125 z m 9.6875,0 0.75,0.8125 v 2.6875 l 0.4375,0.375 h 1.875 l -0.75,-0.75 h -0.75 v -2.75 l -0.375,-0.375 H 41.125 Z m 3.5,0 -0.375,0.375 -0.0625,2.3125 -0.75,0.0625 1.5625,1.5 h 1.125 l -1.125,-1.125 v -2.375 L 45,39.9375 Z M 22.9375,41.125 22.5,41.5 l 0.375,0.375 v 1.5625 l 0.8125,0.75 V 41.125 Z M 31.5,41.5 v 1.9375 l 0.1875,0.1875 0.1875,0.1875 h 1.9375 L 34,44 l 0.1875,0.1875 h 1.125 L 35.125,44 34.9375,43.8125 34.75,43.625 34.5625,43.4375 34,42.875 33.8125,42.625 H 32.625 l 0.1875,0.25 L 33,43.0625 H 32.25 V 41.875 L 31.875,41.5 Z" />
    <path fill="var(--v-primary-base, #475A91)" d="M 43.5,11.8125 V 12.125 H 44 v 1.4375 h 0.375 V 12.125 h 0.5 v -0.3125 z m 1.625,0 v 1.75 H 45.5 v -1 A 1.0625,1.0625 0 0 0 45.4375,12.125 H 45.5 v 0.25 l 0.4375,1.1875 H 46.25 l 0.4375,-1.1875 c 0,-0.05859 0.0556,-0.11647 0.0625,-0.226562 V 13.5625 h 0.375 v -1.75 h -0.5625 l -0.375,1.0625 a 0.5,0.5 0 0 1 -0.0625,0.25 0.375,0.375 0 0 0 -0.0625,-0.25 l -0.375,-1.0625 z" />
  </g>
</svg>

<svg xmlns="http://www.w3.org/2000/svg" width="56" height="56" viewBox="0 0 56 56">
  <path fill="var(--v-primary-base, #475a91)" d="m9.875 13.563 3.813 3.812h7.562l1.875 1.875-.937.938-.938.937h-5.687l-3.75-3.75V28.75l3.75-3.812h5.687l.938.937.937.938-.937.937-.938 1h-7.562l-1.876 1.875-1 .938-.937.937-.937.938-.938.937h5.688l.937-.937.938-.938h7.562l1-.937.938-.938.937-.937.938-.938v-3.812l-1.875-1.875.937-1 .938-.938.937-.937.938-.938-.938-.937-.937-.938-1.875-1.937-.938-.938-1-.937zm15.375 0 1 .937.938.938.937 1 .938.937H38.5l1 .938.938.937v5.688l.937.937.938.938 1.874 1.937V17.375l-3.75-3.812zm3.813 7.562v9.5l.937.938.938.937h9.5l.937.938.938.937H48l-.937-.937-.938-.938-.937-.937-1-.938-2.813-2.875-.937-.937H34.75l.938.937.937 1h-3.75v-5.687l-1.937-1.938ZM11.688 39.938l.75.812H14l.375.375-.187.188L14 41.5h-1.187l-.75-.75v2.313l.75-.813H14l.188.188.187.187-.187.25-.188.188h-1.562l-.376.374-.187.188-.187.188-.25.187-.188.188h1.188l.187-.188.188-.187h1.562l.188-.188.187-.187.188-.188.187-.187v-.813l-.375-.375.188-.187.187-.188.188-.187.187-.188-.187-.187-.188-.188-.375-.437-.187-.188-.188-.187Zm10.062 0 .813.812h.75v-.437l-.375-.376zm8.938 0 .187.187.188.188.187.25.25.187h1.875l.188.188.25.187v1.125l.187.188.188.187.374.438V40.75l-.75-.812zm9.687 0 .75.812v2.688l.438.374h1.874l-.75-.75h-.75v-2.75l-.374-.374h-.438Zm3.5 0-.375.374-.062 2.313-.75.063 1.562 1.5h1.125l-1.125-1.126v-2.374l.75-.75Zm-20.937 1.187-.438.375.375.375v1.563l.813.75v-3.063Zm8.562.375v1.938l.188.187.187.188h1.938L34 44l.188.188h1.124L35.126 44l-.187-.187-.188-.188-.187-.187-.563-.563-.187-.25h-1.188l.188.25.187.188h-.75v-1.188l-.375-.375Zm12-29.687v.312h.5v1.438h.375v-1.438h.5v-.312zm1.625 0v1.75h.375v-1a1.1 1.1 0 0 0-.062-.438h.062v.25l.438 1.188h.312l.438-1.188c0-.059.055-.116.062-.227v1.415h.375v-1.75h-.562l-.376 1.062a.5.5 0 0 1-.062.25.38.38 0 0 0-.062-.25l-.376-1.062z"/>
</svg>
